X: 32115
T: Pete's Breakdown
R: reel
M: 4/4
K: Dmajor
|:"D"D2A,D FFDF|AAFA dfed|"A"cGGG- GBAG|"D"EFFF "A"GFEF|
"D"D2A,D FFDF|AAFA dfed|"A"cGGG- GBAG|GFEF "D"D4:|
K:Bm
|:"Bm"b2a2 "Em"f2e2|"Bm"d3 B B2d2|"F#"cFBd fedc|"Bm"Bcde f2df|
"Bm"b2a2 "Em"f2e2|"Bm"d3 BB2d2|"F#"cFBc fedc|"Bm"Bbfd B4:|

